X: 33686
T: Ramnee Ceilidh
R: reel
M: 4/4
K: Dmajor
|:dBBd A2 de|fdgf e2de|faaf e2fe|d3e dBAB|
dBBd A2 de|fdgf e2de|faaf e2fe|1 dBAB d2d2:|2 dBAB d3e||
|:f3A Bd e2|ed d2 edBd|f3A Bde2|edfe d3e|
f3A Bd e2|ed d2 edBd|faaf e2fe|1 dBAB d2de:|2 dBAB d4||

